X:1
T:Take Me as I Am
T: Ira David Sankey (1840-1908)
T:Take Me as I Am
T:Public Domain
T:Public Domain
C:Ira David Sankey (1840-1908)
Z:Public Domain
%%score ( 1 2 ) ( 3 4 )
L:1/8
M:6/8
K:E
V:1 treble 
V:2 treble 
V:3 bass 
V:4 bass 
V:1
 E"^Moderato" | [EG]2 [EG] [EG]2 [EA] | [EG]2 [DF] E2 [EG] | [DB]2 [DB] [DB]2 [Dc] | %4
w: 1.~Je-|my Lord, to Thee|I cry; Un- less|help me I must|
w: 2.~Help-|I am, and full|of guilt; But yet|me Thy blood was|
w: 3.~No|ar- a- tion can|I make, My best|solves I on- ly|
w: 4.~Be-|me, Sav- ior, at|Thy feet, Deal with|as Thou see- est|
 [EB]2 [DF] [EG]2 [EB] | [Ec]2 [Ec] (cd)[Ee] | [EB]2 [EB] [EG]2 E | [EG]2 [FA] [EG]2 [DF] | %8
w: die; Oh, bring Thy|free sal- va- * tion|And take me as|am. * * *|
w: spilt, And Thou canst|make me what * Thou|And take me as|am. * * *|
w: break, Yet save me|for Thine own * name’s|And take me as|am. * * *|
w: meet; Thy work be-|gin, Thy work * com-|And take me as|am. * * *|
 E3- E2 ||"^Refrain" E | [EG]2 [EG] [DG]2 [DF] | [B,E]3- [B,E]2 [EG] | [DB]2 [DB] [DB]2 [FA] | %13
w: |||||
w: |||||
w: |||||
w: |||||
 [EG]3- [EG]2 [EB] | [Ec]2 [Ec] (cd)[Ee] | [EB]2 [EB] [EG]2 E | [EG]2 [FA] [EG]2 [DF] | E3- E2 |] %18
w: |||||
w: |||||
w: |||||
w: |||||
V:2
 E | x6 | x3 E2 x | x6 | x6 | x3 E2 x | x5 E | x6 | E3- E2 || E | x6 | x6 | x6 | x6 | x3 E2 x | %15
w: sus,||Thou|||nigh,|I|||||||||
w: less||for|||wilt,|I|||||||||
w: prep-||re-|||sake,|I|||||||||
w: hold||me|||plete,|I|||||||||
 x5 E | x6 | E3- E2 |] %18
w: |||
w: |||
w: |||
w: |||
V:3
 [E,G,] | [E,B,]2 [E,B,] [E,B,]2 [A,,C] | [B,,B,]2 [B,,A,] [E,G,]2 [E,B,] | %3
w: ~|~ ~ ~ ~|~ ~ ~ ~|
 [B,,B,]2 [B,,F,] [B,,F,]2 [B,,A,] | [B,,G,]2 [B,,B,] [E,B,]2 [E,G,] | %5
w: ~ ~ ~ ~|~ ~ ~ ~|
 [A,,A,]2 [A,,A,] [A,,A,]2 [C,A,] | [E,G,]2 [E,G,] [E,B,]2 [G,,B,] | %7
w: ~ ~ ~ ~|~ ~ ~ ~|
 [B,,B,]2 [B,,B,] [B,,B,]2 [B,,A,] | [E,G,]3- [E,G,]2 || [E,G,] | [E,B,]2 [E,B,] [B,,B,]2 [B,,A,] | %11
w: ~ ~ ~ ~|~ *|And|take me as I|
 [E,G,]3- [E,G,]2 E, | [B,,F,]2 [B,,F,] [B,,F,]2 [B,,B,] | [E,B,]3- [E,B,]2 [E,G,] | %14
w: am, * And|me as I am,|My * on-|
 [A,,A,]2 [A,,A,] [A,,A,]2 [C,A,] | [E,G,]2 [E,G,] [E,B,]2 [G,,B,] | %16
w: ly plea— Christ died|for me! Oh, take|
 [B,,B,]2 [B,,B,] [B,,B,]2 [B,,A,] | [E,G,]3- [E,G,]2 |] %18
w: me as I am.||
V:4
 x | x6 | x6 | x6 | x6 | x6 | x6 | x6 | x5 || x | x6 | x5 E, | x6 | x6 | x6 | x6 | x6 | x5 |] %18
w: |||||||||||take|||||||

